app/assets/img/nav/navMe.svg

<svg height="24" viewBox="0 0 24 24" width="24" xmlns="http://www.w3.org/2000/svg"><path d="m12 0c-6.624 0-12 5.376-12 12s5.376 12 12 12 12-5.376 12-12-5.376-12-12-12zm0 3.6c1.992 0 3.6 1.608 3.6 3.6s-1.608 3.6-3.6 3.6-3.6-1.608-3.6-3.6 1.608-3.6 3.6-3.6zm0 17.04c-3 0-5.652-1.536-7.2-3.864.036-2.388 4.8-3.696 7.2-3.696 2.388 0 7.164 1.308 7.2 3.696-1.548 2.328-4.2 3.864-7.2 3.864z" fill="#888" fill-rule="evenodd"/></svg>

<?xml version="1.0" encoding="UTF-8"?>
<svg width="24px" height="24px" viewBox="0 0 24 24" version="1.1" xmlns="http://www.w3.org/2000/svg" xmlns:xlink="http://www.w3.org/1999/xlink">
    <!-- Generator: Sketch 41.2 (35397) - http://www.bohemiancoding.com/sketch -->
    <title>navAccount</title>
    <desc>Created with Sketch.</desc>
    <defs></defs>
    <g id="Mobile-Web" stroke="none" stroke-width="1" fill="none" fill-rule="evenodd">
        <g id="mobile---find" transform="translate(-326.000000, -617.000000)" fill="#888888">
            <g id="header" transform="translate(0.000000, 606.000000)">
                <g id="navAccount" transform="translate(326.000000, 11.000000)">
                    <path d="M12,0 C5.376,0 0,5.376 0,12 C0,18.624 5.376,24 12,24 C18.624,24 24,18.624 24,12 C24,5.376 18.624,0 12,0 L12,0 Z M12,3.6 C13.992,3.6 15.6,5.208 15.6,7.2 C15.6,9.192 13.992,10.8 12,10.8 C10.008,10.8 8.4,9.192 8.4,7.2 C8.4,5.208 10.008,3.6 12,3.6 L12,3.6 Z M12,20.64 C9,20.64 6.348,19.104 4.8,16.776 C4.836,14.388 9.6,13.08 12,13.08 C14.388,13.08 19.164,14.388 19.2,16.776 C17.652,19.104 15,20.64 12,20.64 L12,20.64 Z" id="Shape"></path>
                </g>
            </g>
        </g>
    </g>
</svg>
